packages/sources/assets/src/assets/flag-ma.svg

<svg width="28" height="20" viewBox="0 0 28 20" fill="none" xmlns="http://www.w3.org/2000/svg">
<rect width="28" height="20" rx="2" fill="white"/>
<mask id="mask0_503_2716" style="mask-type:alpha" maskUnits="userSpaceOnUse" x="0" y="0" width="28" height="20">
<rect width="28" height="20" rx="2" fill="white"/>
</mask>
<g mask="url(#mask0_503_2716)">
<rect width="28" height="20" fill="#E33B44"/>
<path d="M14.387 11.7971L14 11.5213L13.613 11.7971L11.7072 13.1557L12.4104 10.9234L12.5532 10.4701L12.1712 10.1873L10.2902 8.79461L12.6306 8.77354L13.1058 8.76926L13.2567 8.31861L14 6.09929L14.7433 8.31861L14.8942 8.76926L15.3694 8.77354L17.7098 8.79461L15.8288 10.1873L15.4468 10.4701L15.5896 10.9234L16.2928 13.1557L14.387 11.7971Z" stroke="#0A6135" stroke-width="1.33333"/>
</g>
</svg>

<svg width="28" height="20" fill="none" xmlns="http://www.w3.org/2000/svg"><rect width="28" height="20" rx="2" fill="#fff"/><mask id="a" style="mask-type:alpha" maskUnits="userSpaceOnUse" x="0" y="0" width="28" height="20"><rect width="28" height="20" rx="2" fill="#fff"/></mask><g mask="url(#a)"><path fill="#E33B44" d="M0 0h28v20H0z"/><path d="M14.387 11.797 14 11.521l-.387.276-1.906 1.359.703-2.233.143-.453-.382-.283-1.88-1.392 2.34-.021.475-.005.15-.45.744-2.22.743 2.22.151.45.475.005 2.34.02-1.88 1.393-.382.283.143.453.703 2.233-1.906-1.359Z" stroke="#0A6135" stroke-width="1.333"/></g></svg>
